X:3872
L:1/16
M:3/4
K:C
 G2 c4 BcdcBc | dcBcdcBcdcBc | Gd d4 ^cdedcd | ed^cdedcdedcd | e2e2e2g2fed=c | c2G2c2d2e2f2 | 
 e2 g4 ^fgagfg | ag^fg =f6 d2 | g2 g4 ^fgagfg | ag^fg =f6 d2 | G2 c4 BcdcBc | ^cd d4 cdedcd | 
 eg =c6- cbag | gfdB d4 c4 |]

